X:1
T: Moray's Frolick
C:
R:Jig
Q:180
K:Dm
M:6/8
L:1/16
|:DE|F2DEFD G2EFGE|d2e2f2 e2d2^c2|d6c6|A2c2A2 AGFEDC|
F2DEFD G2EFGE|d2e2f2 e2d2^c2|d4d2 c2A2G2|A2d2d2 d4:|
|:g2|a4d2 a4d2|f3gab a2g2f2|g4c2 g4c2|e3fga g2f2e2|
f2defd g2efge|a2fgaf g2efge|f2e2d2 c2A2G2|A2d2d2 d4:|
